SVG_Azure_Grouped/Compute/Instance Pool.svg

<?xml version="1.0" encoding="UTF-8" standalone="no"?>
<!-- Generated by Microsoft Visio, SVG Export Instance Pool.svg Page-1 -->

<svg
   xmlns:dc="http://purl.org/dc/elements/1.1/"
   xmlns:cc="http://creativecommons.org/ns#"
   xmlns:rdf="http://www.w3.org/1999/02/22-rdf-syntax-ns#"
   xmlns:svg="http://www.w3.org/2000/svg"
   xmlns="http://www.w3.org/2000/svg"
   xmlns:sodipodi="http://sodipodi.sourceforge.net/DTD/sodipodi-0.dtd"
   xmlns:inkscape="http://www.inkscape.org/namespaces/inkscape"
   width="0.78746665in"
   height="0.78757536in"
   viewBox="0 0 56.697633 56.705737"
   xml:space="preserve"
   class="st8"
   version="1.1"
   id="svg68"
   sodipodi:docname="Instance Pool.svg"
   style="font-size:12px;overflow:visible;color-interpolation-filters:sRGB;fill:none;fill-rule:evenodd;stroke-linecap:square;stroke-miterlimit:3"
   inkscape:version="0.92.5 (2060ec1f9f, 2020-04-08)"><metadata
   id="metadata72"><rdf:RDF><cc:Work
       rdf:about=""><dc:format>image/svg+xml</dc:format><dc:type
         rdf:resource="http://purl.org/dc/dcmitype/StillImage" /></cc:Work></rdf:RDF></metadata><sodipodi:namedview
   pagecolor="#ffffff"
   bordercolor="#666666"
   borderopacity="1"
   objecttolerance="10"
   gridtolerance="10"
   guidetolerance="10"
   inkscape:pageopacity="0"
   inkscape:pageshadow="2"
   inkscape:window-width="640"
   inkscape:window-height="480"
   id="namedview70"
   showgrid="false"
   inkscape:zoom="1.4193119"
   inkscape:cx="37.79602"
   inkscape:cy="37.797711"
   inkscape:window-x="0"
   inkscape:window-y="0"
   inkscape:window-maximized="0"
   inkscape:current-layer="svg68" />
	<style
   type="text/css"
   id="style2">
	<![CDATA[
		.st1 {fill:#777777;stroke:none;stroke-linecap:butt;stroke-width:34}
		.st2 {fill:#999999;stroke:none;stroke-linecap:butt;stroke-width:34}
		.st3 {fill:url(#grad0-10);stroke:none;stroke-linecap:butt;stroke-width:34}
		.st4 {fill:#003067;stroke:none;stroke-linecap:butt;stroke-width:34}
		.st5 {fill:#50e6ff;stroke:none;stroke-linecap:butt;stroke-width:34}
		.st6 {fill:url(#grad0-18);stroke:none;stroke-linecap:butt;stroke-width:34}
		.st7 {fill:#f2f2f2;stroke:none;stroke-linecap:butt;stroke-width:34}
		.st8 {fill:none;fill-rule:evenodd;font-size:12px;overflow:visible;stroke-linecap:square;stroke-miterlimit:3}
	]]>
	</style>

	<defs
   id="Patterns_And_Gradients">
		<linearGradient
   id="grad0-10"
   x1="-0.0015678548"
   y1="71.344919"
   x2="37.517148"
   y2="71.344919"
   gradientTransform="scale(0.87293429,1.1455616)"
   gradientUnits="userSpaceOnUse">
			<stop
   offset="0"
   stop-color="#949494"
   stop-opacity="1"
   id="stop4" />
			<stop
   offset="0.53"
   stop-color="#a2a2a2"
   stop-opacity="1"
   id="stop6" />
			<stop
   offset="1"
   stop-color="#b3b3b3"
   stop-opacity="1"
   id="stop8" />
		</linearGradient>
		<linearGradient
   id="grad0-18"
   x1="0"
   y1="105.37032"
   x2="42.086807"
   y2="105.37032"
   gradientTransform="scale(1.1823183,0.84579595)"
   gradientUnits="userSpaceOnUse">
			<stop
   offset="0"
   stop-color="#0078d4"
   stop-opacity="1"
   id="stop11" />
			<stop
   offset="0.16"
   stop-color="#1380da"
   stop-opacity="1"
   id="stop13" />
			<stop
   offset="0.53"
   stop-color="#3c91e5"
   stop-opacity="1"
   id="stop15" />
			<stop
   offset="0.82"
   stop-color="#559cec"
   stop-opacity="1"
   id="stop17" />
			<stop
   offset="1"
   stop-color="#5ea0ef"
   stop-opacity="1"
   id="stop19" />
		</linearGradient>
	</defs>
	<g
   id="g66"
   transform="translate(-34.000133,-33.9972)">
		<title
   id="title23">Page-1</title>
		<g
   id="group11372-1"
   transform="translate(34.0012,-34.0157)">
			<title
   id="title25">Instance Pool.11372</title>
			<g
   id="group11373-2">
				<title
   id="title27">Sheet.11373</title>
				<g
   id="shape11374-3"
   transform="translate(13.3395,-13.7171)">
					<title
   id="title29">Sheet.11374</title>
					<path
   d="m 32.75,122.78 a 1.96758,1.99337 0 0 1 -1.9,1.93 H 1.9 A 1.90088,1.9258 0 0 1 0,122.78 V 83.66 a 1.83418,1.85823 0 0 1 1.83,-1.93 h 29.02 a 1.90088,1.9258 0 0 1 1.9,1.93 z"
   class="st1"
   id="path31"
   inkscape:connector-curvature="0"
   style="fill:#777777;stroke:none;stroke-width:34;stroke-linecap:butt" />
				</g>
				<g
   id="shape11375-5"
   transform="translate(6.66975,-6.95992)">
					<title
   id="title34">Sheet.11375</title>
					<path
   d="m 32.75,122.78 a 1.96758,1.99337 0 0 1 -1.9,1.93 H 1.9 A 1.90088,1.9258 0 0 1 0,122.78 V 83.66 a 1.83418,1.85823 0 0 1 1.83,-1.93 h 29.02 a 1.90088,1.9258 0 0 1 1.9,1.93 z"
   class="st2"
   id="path36"
   inkscape:connector-curvature="0"
   style="fill:#999999;stroke:none;stroke-width:34;stroke-linecap:butt" />
				</g>
				<g
   id="shape11376-7"
   transform="translate(0,-0.202716)">
					<title
   id="title39">Sheet.11376</title>
					<path
   d="m 32.75,122.78 a 1.96758,1.99337 0 0 1 -1.9,1.93 H 1.9 A 1.93423,1.95959 0 0 1 0,122.78 V 83.66 a 1.83418,1.85823 0 0 1 1.83,-1.93 h 29.02 a 1.90088,1.9258 0 0 1 1.9,1.93 z"
   class="st3"
   id="path41"
   inkscape:connector-curvature="0"
   style="fill:url(#grad0-10);stroke:none;stroke-width:34;stroke-linecap:butt" />
				</g>
				<g
   id="shape11377-11"
   transform="translate(4.80222,-30.475)">
					<title
   id="title44">Sheet.11377</title>
					<path
   d="m 0,121.13 a 3.53497,3.58132 0 0 1 3.53,-3.62 h 16.35 a 3.56832,3.6151 0 0 1 3.66,3.38 3.60167,3.64889 0 0 1 -3.6,3.82 H 3.53 A 3.60167,3.64889 0 0 1 0,121.13 Z"
   class="st4"
   id="path46"
   inkscape:connector-curvature="0"
   style="fill:#003067;stroke:none;stroke-width:34;stroke-linecap:butt" />
				</g>
				<g
   id="shape11378-13"
   transform="translate(6.13617,-31.6237)">
					<title
   id="title49">Sheet.11378</title>
					<ellipse
   cx="2.4011099"
   cy="122.276"
   rx="2.4011099"
   ry="2.43259"
   class="st5"
   id="ellipse51"
   style="fill:#50e6ff;stroke:none;stroke-width:34;stroke-linecap:butt" />
				</g>
				<g
   id="shape11379-15"
   transform="translate(6.93654)">
					<title
   id="title54">Sheet.11379</title>
					<path
   d="M 49.76,113.53 A 11.1718,11.3183 -180 0 0 40.05,102.65 14.0398,14.2239 -180 0 0 25.55,89.13 14.3733,14.5618 -180 0 0 11.74,98.52 13.3395,13.5144 -180 0 0 0,111.53 13.5396,13.7171 -180 0 0 14.01,124.71 h 24.64 a 11.2719,11.4197 -180 0 0 11.11,-11.18 z"
   class="st6"
   id="path56"
   inkscape:connector-curvature="0"
   style="fill:url(#grad0-18);stroke:none;stroke-width:34;stroke-linecap:butt" />
				</g>
				<g
   id="shape11380-19"
   transform="translate(14.8402,-3.75025)">
					<title
   id="title59">Sheet.11380</title>
					<path
   d="m 28.88,118.53 v -11.36 h -3.1 v 13.92 h 8.17 v -2.56 z M 5.2,112.95 a 8.90412,9.02086 0 0 1 -1.7,-1.05 1.56739,1.58794 0 0 1 -0.4,-1.08 1.06716,1.08115 0 0 1 0.5,-1.01 2.10097,2.12852 0 0 1 1.4,-0.41 5.60259,5.67605 0 0 1 3.34,0.98 v -2.9 A 9.40435,9.52765 -180 0 0 5,106.97 a 5.66929,5.74362 -180 0 0 -3.63,1.12 3.60167,3.64889 -180 0 0 -1.37,3 4.50208,4.56111 -180 0 0 3.13,4.06 8.37054,8.48029 0 0 1 2.04,1.21 1.40065,1.41901 0 0 1 0.5,1.08 1.10051,1.11494 0 0 1 -0.5,1.02 2.6012,2.63531 0 0 1 -1.5,0.4 5.36915,5.43955 0 0 1 -3.5,-1.42 v 3.11 a 7.60352,7.70321 -180 0 0 3.33,0.78 6.43631,6.5207 -180 0 0 3.84,-0.95 3.53497,3.58132 -180 0 0 1.43,-3.07 3.33488,3.3786 -180 0 0 -0.83,-2.37 7.53682,7.63564 -180 0 0 -2.74,-1.99 z m 17.21,5.34 a 7.77026,7.87214 -180 0 0 1.1,-4.26 7.57017,7.66942 -180 0 0 -0.83,-3.78 5.66929,5.74362 -180 0 0 -2.3,-2.5 6.26957,6.35177 -180 0 0 -3.54,-0.88 7.00324,7.09506 -180 0 0 -3.33,0.98 6.23622,6.31798 -180 0 0 -2.44,2.6 8.30384,8.41271 -180 0 0 -0.9,3.85 7.60352,7.70321 -180 0 0 0.8,3.55 6.20287,6.2842 -180 0 0 2.27,2.5 6.9032,6.9937 -180 0 0 3.33,0.98 l 2.84,3.38 h 4.1 l -3.97,-3.72 a 6.06948,6.14905 -180 0 0 2.87,-2.7 z m -3.1,-0.85 a 3.10144,3.1421 0 0 1 -2.54,1.19 3.06809,3.10831 0 0 1 -2.5,-1.22 5.00232,5.0679 0 0 1 -0.93,-3.38 4.76887,4.8314 0 0 1 0.97,-3.38 3.10144,3.1421 0 0 1 2.56,-1.25 2.90134,2.93938 0 0 1 2.47,1.25 4.93562,5.00033 0 0 1 0.94,3.38 4.90227,4.96654 0 0 1 -0.97,3.41 z"
   class="st7"
   id="path61"
   inkscape:connector-curvature="0"
   style="fill:#f2f2f2;stroke:none;stroke-width:34;stroke-linecap:butt" />
				</g>
			</g>
		</g>
	</g>
</svg>

<?xml version="1.0" encoding="UTF-8" standalone="no"?>
<!DOCTYPE svg PUBLIC "-//W3C//DTD SVG 1.1//EN" "http://www.w3.org/Graphics/SVG/1.1/DTD/svg11.dtd">
<!-- Generated by Microsoft Visio, SVG Export Instance Pool.svg Page-1 -->
<svg xmlns="http://www.w3.org/2000/svg" xmlns:xlink="http://www.w3.org/1999/xlink" xmlns:ev="http://www.w3.org/2001/xml-events"
		width="1.73186in" height="1.73206in" viewBox="0 0 124.694 124.709" xml:space="preserve" color-interpolation-filters="sRGB"
		class="st8">
	<style type="text/css">
	<![CDATA[
		.st1 {fill:#777777;stroke:none;stroke-linecap:butt;stroke-width:34}
		.st2 {fill:#999999;stroke:none;stroke-linecap:butt;stroke-width:34}
		.st3 {fill:url(#grad0-10);stroke:none;stroke-linecap:butt;stroke-width:34}
		.st4 {fill:#003067;stroke:none;stroke-linecap:butt;stroke-width:34}
		.st5 {fill:#50e6ff;stroke:none;stroke-linecap:butt;stroke-width:34}
		.st6 {fill:url(#grad0-18);stroke:none;stroke-linecap:butt;stroke-width:34}
		.st7 {fill:#f2f2f2;stroke:none;stroke-linecap:butt;stroke-width:34}
		.st8 {fill:none;fill-rule:evenodd;font-size:12px;overflow:visible;stroke-linecap:square;stroke-miterlimit:3}
	]]>
	</style>

	<defs id="Patterns_And_Gradients">
		<linearGradient id="grad0-10" x1="0" y1="0" x2="1" y2="0" gradientTransform="rotate(-90 0.5 0.5)">
			<stop offset="0" stop-color="#949494" stop-opacity="1"/>
			<stop offset="0.53" stop-color="#a2a2a2" stop-opacity="1"/>
			<stop offset="1" stop-color="#b3b3b3" stop-opacity="1"/>
		</linearGradient>
		<linearGradient id="grad0-18" x1="0" y1="0" x2="1" y2="0" gradientTransform="rotate(-90 0.5 0.5)">
			<stop offset="0" stop-color="#0078d4" stop-opacity="1"/>
			<stop offset="0.16" stop-color="#1380da" stop-opacity="1"/>
			<stop offset="0.53" stop-color="#3c91e5" stop-opacity="1"/>
			<stop offset="0.82" stop-color="#559cec" stop-opacity="1"/>
			<stop offset="1" stop-color="#5ea0ef" stop-opacity="1"/>
		</linearGradient>
	</defs>
	<g>
		<title>Page-1</title>
		<g id="group11102-1" transform="translate(34.0012,-34.0157)">
			<title>Instance Pool.11102</title>
			<g id="group11103-2">
				<title>Sheet.11103</title>
				<g id="shape11104-3" transform="translate(13.3395,-13.7171)">
					<title>Sheet.11104</title>
					<path d="M32.75 122.78 A1.96758 1.99337 0 0 1 30.85 124.71 L1.9 124.71 A1.90088 1.9258 0 0 1 0 122.78 L0 83.66
								 A1.83418 1.85823 0 0 1 1.83 81.73 L30.85 81.73 A1.90088 1.9258 0 0 1 32.75 83.66 L32.75 122.78 Z"
							class="st1"/>
				</g>
				<g id="shape11105-5" transform="translate(6.66975,-6.95992)">
					<title>Sheet.11105</title>
					<path d="M32.75 122.78 A1.96758 1.99337 0 0 1 30.85 124.71 L1.9 124.71 A1.90088 1.9258 0 0 1 0 122.78 L0 83.66
								 A1.83418 1.85823 0 0 1 1.83 81.73 L30.85 81.73 A1.90088 1.9258 0 0 1 32.75 83.66 L32.75 122.78 Z"
							class="st2"/>
				</g>
				<g id="shape11106-7" transform="translate(-2.81775E-13,-0.202716)">
					<title>Sheet.11106</title>
					<path d="M32.75 122.78 A1.96758 1.99337 0 0 1 30.85 124.71 L1.9 124.71 A1.93423 1.95959 0 0 1 -0 122.78 L0 83.66
								 A1.83418 1.85823 0 0 1 1.83 81.73 L30.85 81.73 A1.90088 1.9258 0 0 1 32.75 83.66 L32.75 122.78 Z"
							class="st3"/>
				</g>
				<g id="shape11107-11" transform="translate(4.80222,-30.475)">
					<title>Sheet.11107</title>
					<path d="M0 121.13 A3.53497 3.58132 0 0 1 3.53 117.51 L19.88 117.51 A3.56832 3.6151 0 0 1 23.54 120.89 A3.60167
								 3.64889 0 0 1 19.94 124.71 L3.53 124.71 A3.60167 3.64889 0 0 1 -0 121.13 Z" class="st4"/>
				</g>
				<g id="shape11108-13" transform="translate(6.13617,-31.6237)">
					<title>Sheet.11108</title>
					<ellipse cx="2.40111" cy="122.276" rx="2.40111" ry="2.43259" class="st5"/>
				</g>
				<g id="shape11109-15" transform="translate(6.93654,-2.84217E-13)">
					<title>Sheet.11109</title>
					<path d="M49.76 113.53 A11.1718 11.3183 -180 0 0 40.05 102.65 A14.0398 14.2239 -180 0 0 25.55 89.13 A14.3733
								 14.5618 -180 0 0 11.74 98.52 A13.3395 13.5144 -180 0 0 0 111.53 A13.5396 13.7171 -180 0 0 14.01
								 124.71 L38.65 124.71 A11.2719 11.4197 -180 0 0 49.76 113.53 Z" class="st6"/>
				</g>
				<g id="shape11110-19" transform="translate(14.8402,-3.75025)">
					<title>Sheet.11110</title>
					<path d="M28.88 118.53 L28.88 107.17 L25.78 107.17 L25.78 121.09 L33.95 121.09 L33.95 118.53 L28.88 118.53 ZM5.2
								 112.95 A8.90412 9.02086 0 0 1 3.5 111.9 A1.56739 1.58794 0 0 1 3.1 110.82 A1.06716 1.08115 0 0 1
								 3.6 109.81 A2.10097 2.12852 0 0 1 5 109.4 A5.60259 5.67605 0 0 1 8.34 110.38 L8.34 107.48 A9.40435
								 9.52765 -180 0 0 5 106.97 A5.66929 5.74362 -180 0 0 1.37 108.09 A3.60167 3.64889 -180 0 0 -0 111.09
								 A4.50208 4.56111 -180 0 0 3.13 115.15 A8.37054 8.48029 0 0 1 5.17 116.36 A1.40065 1.41901 0 0 1
								 5.67 117.44 A1.10051 1.11494 0 0 1 5.17 118.46 A2.6012 2.63531 0 0 1 3.67 118.86 A5.36915 5.43955
								 0 0 1 0.17 117.44 L0.17 120.55 A7.60352 7.70321 -180 0 0 3.5 121.33 A6.43631 6.5207 -180 0 0 7.34
								 120.38 A3.53497 3.58132 -180 0 0 8.77 117.31 A3.33488 3.3786 -180 0 0 7.94 114.94 A7.53682 7.63564
								 -180 0 0 5.2 112.95 ZM22.41 118.29 A7.77026 7.87214 -180 0 0 23.51 114.03 A7.57017 7.66942 -180
								 0 0 22.68 110.25 A5.66929 5.74362 -180 0 0 20.38 107.75 A6.26957 6.35177 -180 0 0 16.84 106.87 A7.00324
								 7.09506 -180 0 0 13.51 107.85 A6.23622 6.31798 -180 0 0 11.07 110.45 A8.30384 8.41271 -180 0 0 10.17
								 114.3 A7.60352 7.70321 -180 0 0 10.97 117.85 A6.20287 6.2842 -180 0 0 13.24 120.35 A6.9032 6.9937
								 -180 0 0 16.57 121.33 L19.41 124.71 L23.51 124.71 L19.54 120.99 A6.06948 6.14905 -180 0 0 22.41
								 118.29 ZM19.31 117.44 A3.10144 3.1421 0 0 1 16.77 118.63 A3.06809 3.10831 0 0 1 14.27 117.41 A5.00232
								 5.0679 0 0 1 13.34 114.03 A4.76887 4.8314 0 0 1 14.31 110.65 A3.10144 3.1421 0 0 1 16.87 109.4 A2.90134
								 2.93938 0 0 1 19.34 110.65 A4.93562 5.00033 0 0 1 20.28 114.03 A4.90227 4.96654 0 0 1 19.31 117.44
								 Z" class="st7"/>
				</g>
			</g>
		</g>
	</g>
</svg>
